X: 1
T:The Lark in the Morning
M:6/8
L:1/8
Q:80
C:arr. Kent Hiestand
S:Jig
K:HP
{g}dB|:
{g}AGA{g}AGA|
{g}BGB{g}BdB|  !
{GAG}A3{g}AGA|
{a}ged{g}BdB|
{g}AGA{g}AGA|  !
{g}BGB{g}BAB|
{g}defafe|
{g}fdB{g}BAB:| |:  !
{g}def{ag}a3|
{GdG}a{g}afafe|
{g}defafe|  !
{g}fdB{g}BAB|
{g}def{ag}a3|
{GdG}a{g}afafe|  !
{gf}g3{g}faf|
{g}edB{g}BAB:| |:
{g}def{g}fef|  !
{g}fef{g}fef|
{g}def{g}fef|
{g}edB{g}BAB|  !
{g}def{g}fef|
{g}fef{g}fed|
{g}faf{gf}g3|  !
fdB{g}BAB:| |:
{g}Ad{c}dfd{c}d|
{g}ed{c}dfd{c}d|  !
{g}Ad{c}dfd{c}d|
{g}edB{g}BAB|
{g}Ad{c}dfd{c}d|  !
{g}ed{c}dfd{c}d|
{g}faf{gf}g3|
fdB{g}BAB:|  !
